X: 22246
T: La Grande Chaine
R: barndance
M: 4/4
K: Amajor
|:B/|c2 c2 d>cd>f|e2 e2 c>Ac>e|dd B>GB>d|c>dc>B A>GA>B|
c2 c2 d>cd>f|e2 e2 c>Ac>e|dd B>GB>d|c2 A2 A2- A3/2:|
|:d/|a2 a2 f2 f2|e2 e2 c>Ac>e|d2 d2 B>GB>d|c>dc>B A>ce>g|
a2 a2 f2 f2|e2 e2 c>Ac>e|d2 d2 B>GB>d|cA A- A3/2:|

